assets/Fox/Flat/fox_flat.svg

<svg width="32" height="32" viewBox="0 0 32 32" fill="none" xmlns="http://www.w3.org/2000/svg">
<path d="M17.5578 5.98078C17.2606 6.64049 17.0263 7.32221 16.86 8H14.28C14.1105 7.30924 13.8704 6.61439 13.5651 5.94292L10.0308 5.02344L6.56492 5.93582C5.92638 7.3408 5.58 8.88894 5.58 10.42V18.19C5.58 18.64 5.22 19 4.77 19H2.63C2.22 19 1.92 19.4 2.03 19.8C2.14599 20.2109 2.28025 20.6141 2.43184 21.0088L15.585 25.8553L28.7292 21.0076C28.8804 20.6133 29.0143 20.2105 29.13 19.8C29.24 19.4 28.94 19 28.52 19H26.38C25.93 19 25.57 18.64 25.57 18.19V10.42C25.57 8.91291 25.2322 7.38441 24.6077 5.99228L21.0409 5.02344L17.5578 5.98078Z" fill="#FF822D"/>
<path d="M10.19 3.98006C11.5 5.15006 12.42 6.69006 12.83 8.38006C10.41 9.07006 8.37001 10.6401 7.07001 12.7401V10.4001C7.07001 7.93006 8.13001 5.61006 9.94001 3.98006C10.01 3.92006 10.12 3.92006 10.19 3.98006Z" fill="#FF6723"/>
<path d="M24.07 10.4199V12.7299C22.78 10.6399 20.73 9.06995 18.3 8.37995C18.71 6.68995 19.62 5.15995 20.93 3.98995C21 3.92995 21.11 3.92995 21.18 3.98995C23.01 5.60995 24.07 7.93995 24.07 10.4199Z" fill="#FF6723"/>
<path d="M28.73 20.99H22.27C20.52 20.99 18.81 21.54 17.39 22.56L15.58 23.85L13.77 22.56C12.35 21.54 10.64 20.99 8.88998 20.99H2.41998C4.42998 26.26 9.52998 30 15.5 30C15.52 30 15.55 30 15.57 30C15.59 30 15.62 30 15.64 30C21.62 29.99 26.72 26.25 28.73 20.99Z" fill="#FFDEA7"/>
<path d="M13.58 5.95C12.93 4.52 11.98 3.2 10.79 2.24C10.59 2.08 10.34 2 10.09 2C9.84 2 9.59 2.08 9.39 2.24C8.18 3.21 7.21 4.5 6.56 5.95H13.58Z" fill="#212121"/>
<path d="M21.76 2.24C21.56 2.08 21.31 2 21.06 2C20.81 2 20.56 2.08 20.36 2.24C19.16 3.21 18.2 4.55 17.55 6H24.62C23.96 4.53 22.99 3.22 21.76 2.24Z" fill="#212121"/>
<path d="M11 18C11 17.4477 11.4477 17 12 17C12.5523 17 13 17.4477 13 18V19C13 19.5523 12.5523 20 12 20C11.4477 20 11 19.5523 11 19V18Z" fill="#212121"/>
<path d="M18 18C18 17.4477 18.4477 17 19 17C19.5523 17 20 17.4477 20 18V19C20 19.5523 19.5523 20 19 20C18.4477 20 18 19.5523 18 19V18Z" fill="#212121"/>
<path d="M15.58 25.63C16.12 26.45 17.06 27 18.12 27C18.39 27 18.61 26.78 18.61 26.5C18.61 26.22 18.39 26 18.11 26C16.99 26 16.07 25.09 16.07 23.96C16.07 23.8782 16.0512 23.8015 16.0177 23.734C16.0791 23.6975 16.1371 23.6529 16.19 23.6L17.32 22.47C17.87 21.92 17.48 20.99 16.71 20.99H14.45C13.67 20.99 13.28 21.92 13.83 22.47L14.96 23.6C15.0106 23.6507 15.066 23.6938 15.1246 23.7294C15.0896 23.798 15.07 23.8763 15.07 23.96C15.07 25.08 14.16 26 13.03 26C12.75 26 12.53 26.22 12.53 26.5C12.53 26.78 12.75 27 13.03 27C14.09 27 15.03 26.45 15.58 25.63Z" fill="#212121"/>
</svg>

<svg xmlns="http://www.w3.org/2000/svg" width="32" height="32" fill="none"><path fill="#FF822D" d="M17.558 5.98A11.76 11.76 0 0 0 16.86 8h-2.58c-.17-.69-.41-1.386-.715-2.057l-3.534-.92-3.466.913a10.92 10.92 0 0 0-.985 4.484v7.77c0 .45-.36.81-.81.81H2.63c-.41 0-.71.4-.6.8.116.41.25.814.402 1.209l13.153 4.846 13.144-4.847c.151-.395.285-.797.401-1.208.11-.4-.19-.8-.61-.8h-2.14c-.45 0-.81-.36-.81-.81v-7.77c0-1.507-.338-3.036-.962-4.428l-3.567-.969-3.483.958Z"/><path fill="#FF6723" d="M10.19 3.98a8.64 8.64 0 0 1 2.64 4.4 10 10 0 0 0-5.76 4.36V10.4c0-2.47 1.06-4.79 2.87-6.42.07-.06.18-.06.25 0ZM24.07 10.42v2.31a9.985 9.985 0 0 0-5.77-4.35 8.594 8.594 0 0 1 2.63-4.39c.07-.06.18-.06.25 0a8.573 8.573 0 0 1 2.89 6.43Z"/><path fill="#FFDEA7" d="M28.73 20.99h-6.46c-1.75 0-3.46.55-4.88 1.57l-1.81 1.29-1.81-1.29a8.372 8.372 0 0 0-4.88-1.57H2.42C4.43 26.26 9.53 30 15.5 30h.14c5.98-.01 11.08-3.75 13.09-9.01Z"/><path fill="#212121" d="M13.58 5.95c-.65-1.43-1.6-2.75-2.79-3.71-.2-.16-.45-.24-.7-.24-.25 0-.5.08-.7.24-1.21.97-2.18 2.26-2.83 3.71h7.02ZM21.76 2.24c-.2-.16-.45-.24-.7-.24-.25 0-.5.08-.7.24-1.2.97-2.16 2.31-2.81 3.76h7.07c-.66-1.47-1.63-2.78-2.86-3.76ZM11 18a1 1 0 1 1 2 0v1a1 1 0 1 1-2 0v-1ZM18 18a1 1 0 1 1 2 0v1a1 1 0 1 1-2 0v-1ZM15.58 25.63c.54.82 1.48 1.37 2.54 1.37.27 0 .49-.22.49-.5s-.22-.5-.5-.5c-1.12 0-2.04-.91-2.04-2.04a.507.507 0 0 0-.052-.226.878.878 0 0 0 .172-.134l1.13-1.13a.865.865 0 0 0-.61-1.48h-2.26c-.78 0-1.17.93-.62 1.48l1.13 1.13c.05.05.106.094.165.13a.506.506 0 0 0-.055.23c0 1.12-.91 2.04-2.04 2.04-.28 0-.5.22-.5.5s.22.5.5.5c1.06 0 2-.55 2.55-1.37Z"/></svg>
